public/_vara/icons/langgraph.svg

<svg fill="currentColor" viewBox="0 0 24 24"><path d="M5 19h5a5 5 0 1 1-5-5Zm14-5a5 5 0 1 1-5 5h5Zm-9-9a5 5 0 1 0-5 5V5Zm9 0v5a5 5 0 1 0-5-5Z"/></svg>

<svg role="img" viewBox="0 0 24 24" xmlns="http://www.w3.org/2000/svg"><title>LangGraph</title><path d="M5 19H10A5 5 0 115 14ZM19 14A5 5 0 1114 19H19ZM10 5A5 5 0 105 10V5ZM19 5V10A5 5 0 1014 5Z"/></svg>
